X: 14021
T: Frank's
R: reel
M: 4/4
K: Gdorian
V:1
(3DFG ^F>A G3 A|B3- B/G/ A>G =F>G|(3DFG ^F>A G>A B>A|G>=F (3EFG F>D C>F|
D>G ^F>A G>F G>A|B2 B>G A>G =F>G|(3DFG ^F>A G>A B>A|G>F (3EFG F>D C>A,|
B,2- B,>D C>B, C>D|B,>G, G,>A, G,>G, G,>A,|B,>A, (3B,CD C>D _E>C|D>G G>^F G>A G>D|
B,>A, B,>D C>B, C>D|B,>B, A,>B, G,>A, B,>C|(3DFG ^F>A G>A B>A|G>F (3EFG F>D C>F|
V:2
[G,,D,]2 [G,,D,]2 [G,,D,]2 [G,,D,]2|[G,,D,]2 [G,,D,]2 [G,,D,]2 [G,,D,]2|[G,,^D,]2 [G,,D,]2 [G,,D,]2 [G,,D,]2|[G,,^D,]2 [G,,D,]2 [G,,D,]2 [G,,D,]2|
[G,,C,]2 [G,,C,]2 [G,,C,]2 [G,,C,]2|[G,,C,]2 [G,,C,]2 [G,,C,]2 [G,,C,]2|[G,,^D,]2 [G,,D,]2 [G,,D,]2 [G,,D,]2|[G,,^D,]2 [G,,D,]2 [G,,D,]2 [G,,D,]2|
[G,,D,]2 [G,,D,]2 [G,,D,]2 [G,,D,]2|[G,,D,]2 [G,,D,]2 [G,,D,]2 [G,,D,]2|[G,,^D,]2 [G,,D,]2 [G,,D,]2 [G,,D,]2|[G,,^D,]2 [G,,D,]2 [G,,D,]2 [G,,D,]2|
[G,,C,]2 [G,,C,]2 [G,,C,]2 [G,,C,]2|[G,,C,]2 [G,,C,]2 [G,,C,]2 [G,,C,]2|[G,,^D,]2 [G,,D,]2 [G,,D,]2 [G,,D,]2|[G,,^D,]2 [G,,D,]2 [G,,D,]2 [G,,D,]2|

